icon-themes/breeze_svg/sw/res/sc20236.svg

<svg viewBox="0 0 16 16" xmlns="http://www.w3.org/2000/svg"><path d="m3 2v1h1v2h-1v1h3v-1h-1v-2h1v-1zm4 1v1h7v-1zm-2 5v1h1v2h-1v1h3v-1h-1v-2h1v-1zm4 1v1h5v-1z" fill="#4d4d4d"/></svg>

<svg xmlns="http://www.w3.org/2000/svg" viewBox="0 0 16 16">
 <path 
     style="fill:#4d4d4d" 
     d="M 3 2 L 3 3 L 4 3 L 4 5 L 3 5 L 3 6 L 6 6 L 6 5 L 5 5 L 5 3 L 6 3 L 6 2 L 3 2 z M 7 3 L 7 4 L 14 4 L 14 3 L 7 3 z M 5 8 L 5 9 L 6 9 L 6 11 L 5 11 L 5 12 L 8 12 L 8 11 L 7 11 L 7 9 L 8 9 L 8 8 L 5 8 z M 9 9 L 9 10 L 14 10 L 14 9 L 9 9 z "
     />
</svg>
